X:1
T:The Lord’s Good Time Is Coming
T:The Lord’s Good Time Is Coming
T:James Henry Fillmore, Sr.
T:Jessie H. Brown Pounds, 1890
T:Public Domain Courtesy of the Cyber Hymnal™
T:Public Domain Courtesy of the Cyber Hymnal™
C:James Henry Fillmore, Sr.
Z:Public Domain
Z:Courtesy of the Cyber Hymnal™
%%score ( 1 2 ) ( 3 4 )
L:1/8
Q:1/4=93
M:4/4
K:G
V:1 treble 
V:2 treble 
V:3 bass 
V:4 bass 
V:1
 D2 | [DG]>[DG] [DG]>[DG] [DG]>[DF] [DG]>[FA] | [GB][Gd]- [Gd]4 [DB]2 | %3
w: 1.~There|is a time for wak- ing and for|sleep- ing, * A|
w: 2.~A|time for pain, a time for shade- less|plea- sures, * A|
w: 3.~A|time for tears, a time for rap- turous|greet- ing, * A|
 [EG]>[EG] [EG]>[^DF] [EG]>[FA] [GB]>[EG] | [FA]6 D2 | [DG]>[DG] [DG]>[DG] [DG]>[DF] [DG]>[FA] | %6
w: time for war- ring and a time for|peace; A|time for sow- ing, and a time for|
w: time for sha- dows and a time for|light; A|time to lose, a time to find our|
w: time for ex- ile and a time for|home; A|time for part- ing, and a time for|
 [GB][Gd]- [Gd]4 [DB]2 | [EG]>[EG] [EG]>[EA] [GB]>[DG] [FA]>[DF] | [DG]6 ||"^Refrain" [DG]2 | %10
w: reap- ing, * A|time for toil, a time when toil must|cease.||
w: trea- sures, * A|time for faith, a time for per- fect|sight.|A|
w: meet- ing, * Trust|on! The Lord’s good time will sure- ly|come.||
 [Ec]>[Ec] [Ec]>[Ec] [Ec]>[Ge] [=Fd]>[Ec] | [DB][Gd]- [Gd]4 [GB]2 | %12
w: ||
w: time of rest will come to hearts grown|wea- ry, * A|
w: ||
 [FA]>[FA] [FA]>[FA] [FA]>[FA] [Bd]>[Ac] | [GB]6 [=FG]2 | %14
w: ||
w: time of praise to those that grieve and|sigh, A|
w: ||
 [Ec]>[Ec] [Ec]>[Ec] [Ec]>[Ge] [=Fd]>[Ec] | [DB][Gd]- [Gd]4 [GB]2 | %16
w: ||
w: time of joy to those whose lives are|drea- ry, * The|
w: ||
 [FA]>[FA] [FA]>[FA] [FA]<G [GB]>[DA] | [DG]6 |] %18
w: ||
w: Lord’s good time is com- ing by and|by.|
w: ||
V:2
 D2 | x8 | x8 | x8 | x6 D2 | x8 | x8 | x8 | x6 || x2 | x8 | x8 | x8 | x8 | x8 | x8 | x9/2 G3/2 x2 | %17
 x6 |] %18
V:3
 D,2 | [G,B,]>[G,B,] [G,B,]>[G,B,] [G,B,]>[G,A,] [G,B,]>[D,D] | [G,D][G,B,]- [G,B,]4 G,2 | %3
 [E,B,]>[E,B,] [E,B,]>[B,,B,] [E,B,]>[E,B,] [E,B,]>[E,^C] | [D,D]6 D,2 | %5
 [G,B,]>[G,B,] [G,B,]>[G,B,] [G,B,]>[G,A,] [G,B,]>[D,D] | [G,D][G,B,]- [G,B,]4 G,2 | %7
 [E,B,]>[E,B,] [E,B,]>[E,^C] [D,D]>[D,B,] [D,=C]>[D,A,] | [G,B,]6 || [G,B,]2 | %10
 [C,G,]>[C,G,] [C,G,]>[C,G,] [C,G,]>[C,C] [C,C]>[E,G,] | G,[G,B,]- [G,B,]4 [G,,D]2 | %12
 [D,D]>[D,D] [D,D]>[D,D] [D,D]>[D,D] [D,D]>[D,D] | [G,D]6 [G,B,]2 | %14
 [C,G,]>[C,G,] [C,G,]>[C,G,] [C,G,]>[C,C] [C,C]>[E,G,] | G,[G,B,]- [G,B,]4 [G,,D]2 | %16
 [D,C]>[D,C] [D,C]>[D,C] [D,C]<[D,B,] [D,D]>[D,C] | [G,,B,]6 |] %18
V:4
 D,2 | x8 | x6 G,2 | x8 | x6 D,2 | x8 | x6 G,2 | x8 | x6 || x2 | x8 | G, x7 | x8 | x8 | x8 | %15
 G, x7 | x8 | x6 |] %18

